icon-themes/sifr_svg/cmd/lc_torus.svg

<svg viewBox="0 0 24 24" xmlns="http://www.w3.org/2000/svg"><g fill="#555753"><path d="m12 3c-5.5228475 0-10 4.0294375-10 9 0 4.970562 4.4771525 9 10 9 5.522847 0 10-4.029438 10-9 0-4.9705625-4.477153-9-10-9zm0 1.2857143c.587975.3801896.816496.789957 0 1.2857143-3.4369739 0-6.25 2.8933985-6.25 6.4285714-.7450623-.771741-1.5311113-1.185142-2.5 0 0-4.1764462 3.8182589-7.7142857 8.75-7.7142857zm0 2.5714286c2.633848.0008087 4.815461 2.103066 4.987792 4.8063611.0083.111999.01225.224228.01225.336496 0 2.840322-2.238577 5.142857-5 5.142857-2.6338894-.000808-4.8155033-2.103065-4.987835-4.806361-.0082277-.111994-.0122994-.224228-.012207-.336496 0-2.8403215 2.2385763-5.1428571 5-5.1428571zm6.25 5.1428571c.729144.634694 1.490206 1.083069 2.5 0 0 4.176446-3.818259 7.714286-8.75 7.714286-.343494 0-1.04131-.901383 0-1.285715 3.436974 0 6.25-2.893398 6.25-6.428571z"/><path d="m12 4.2857143c-4.6235072 0-8.2685076 3.1083725-8.7060548 6.9383367-.0291697.255331-.0439452.51492-.0439452.775949h2.5c0-.220948.0103-.440028.031739-.655414.3216341-3.2307706 2.996098-5.7731574 6.218261-5.7731574.987798-.3559989 1.371714-.7563639 0-1.2857143zm6.25 7.7142857c0 3.535173-2.813026 6.428571-6.25 6.428571-1.283618.459277-1.121622 1.285715 0 1.285715 4.931741 0 8.75-3.53784 8.75-7.714286-.806726-.848377-1.636815-.951839-2.5 0z" opacity=".35"/></g></svg>

<svg xmlns="http://www.w3.org/2000/svg" viewBox="0 0 24 24">
  <path
     style="fill:#555753"
     d="M 12,3 C 6.4771525,3 2,7.0294375 2,12 c 0,4.970562 4.4771525,9 10,9 5.522847,0 10,-4.029438 10,-9 C 22,7.0294375 17.522847,3 12,3 Z m 0,1.2857143 c 0.587975,0.3801896 0.816496,0.789957 0,1.2857143 C 8.5630261,5.5714286 5.75,8.4648271 5.75,12 5.0049377,11.228259 4.2188887,10.814858 3.25,12 3.25,7.8235538 7.0682589,4.2857143 12,4.2857143 Z m 0,2.5714286 c 2.633848,8.087e-4 4.815461,2.103066 4.987792,4.8063611 0.0083,0.111999 0.01225,0.224228 0.01225,0.336496 0,2.840322 -2.238577,5.142857 -5,5.142857 C 9.3661526,17.142049 7.1845387,15.039792 7.012207,12.336496 7.0039793,12.224502 6.9999076,12.112268 7,12 7,9.1596785 9.2385763,6.8571429 12,6.8571429 Z M 18.25,12 c 0.729144,0.634694 1.490206,1.083069 2.5,0 0,4.176446 -3.818259,7.714286 -8.75,7.714286 -0.343494,0 -1.04131,-0.901383 0,-1.285715 3.436974,0 6.25,-2.893398 6.25,-6.428571 z"
     />
  <path
     style="opacity:0.35;fill:#555753"
     d="m 12,4.2857143 c -4.6235072,0 -8.2685076,3.1083725 -8.7060548,6.9383367 C 3.2647755,11.479382 3.25,11.738971 3.25,12 h 2.5 c 0,-0.220948 0.0103,-0.440028 0.031739,-0.655414 C 6.1033731,8.1138154 8.777837,5.5714286 12,5.5714286 12.987798,5.2154297 13.371714,4.8150647 12,4.2857143 Z M 18.25,12 c 0,3.535173 -2.813026,6.428571 -6.25,6.428571 -1.283618,0.459277 -1.121622,1.285715 0,1.285715 4.931741,0 8.75,-3.53784 8.75,-7.714286 -0.806726,-0.848377 -1.636815,-0.951839 -2.5,0 z"
     />
</svg>
